web/public/images/netlify.svg

<svg fill="none" height="42" viewBox="0 0 43 42" width="43" xmlns="http://www.w3.org/2000/svg" xmlns:xlink="http://www.w3.org/1999/xlink"><clipPath id="a"><path d="m.25 0h42v42h-42z"/></clipPath><g clip-path="url(#a)"><path d="m11.6075 33.32h-.4025l-1.9775-1.995v-.4025l3.0275-2.9925h2.1l.2625.2625v2.1l-2.9925 3.0275zm-2.38-22.2775v-.3675l1.9775-1.9775h.4025l2.9925 2.9925v2.1l-.2625.2625h-2.1zm17.43 15.9075h-2.8875l-.245-.2275v-6.7025c0-1.19-.4725-2.1-1.925-2.1525-.735 0-1.575 0-2.5025.035l-.1225.14v8.68l-.245.245h-2.905l-.2275-.245v-11.445l.2275-.245h6.475c.599-.0023 1.1925.1137 1.7466.3413.554.2276 1.0577.5624 1.4821.9852.4243.4227.761.9251.9908 1.4782.2297.5532.348 1.1463.348 1.7453v7.14l-.2275.245zm-14.6475-4.27h-11.515l-.245-.245v-2.87l.245-.245h11.515l.245.245v2.87zm29.995 0h-11.515l-.245-.245v-2.87l.245-.245h11.515l.245.245v2.87zm-22.4175-11.2175v-8.5925l.245-.245h2.8875l.245.245v8.575l-.245.245h-2.8875zm0 27.6675v-8.575l.245-.245h2.8875l.245.2275v8.5925l-.245.245h-2.8875z" fill="#a86338"/></g></svg>

<svg width="43" height="42" viewBox="0 0 43 42" fill="none" xmlns="http://www.w3.org/2000/svg">
<g clip-path="url(#clip0_26_114)">
<path d="M11.6075 33.32H11.205L9.2275 31.325V30.9225L12.255 27.93H14.355L14.6175 28.1925V30.2925L11.625 33.32H11.6075ZM9.2275 11.0425V10.675L11.205 8.6975H11.6075L14.6 11.69V13.79L14.3375 14.0525H12.2375L9.2275 11.0425ZM26.6575 26.95H23.77L23.525 26.7225V20.02C23.525 18.83 23.0525 17.92 21.6 17.8675C20.865 17.8675 20.025 17.8675 19.0975 17.9025L18.975 18.0425V26.7225L18.73 26.9675H15.825L15.5975 26.7225V15.2775L15.825 15.0325H22.3C22.899 15.0302 23.4925 15.1462 24.0466 15.3738C24.6006 15.6014 25.1043 15.9362 25.5287 16.359C25.953 16.7817 26.2897 17.2841 26.5195 17.8372C26.7492 18.3904 26.8675 18.9835 26.8675 19.5825V26.7225L26.64 26.9675L26.6575 26.95ZM12.01 22.68H0.495L0.25 22.435V19.565L0.495 19.32H12.01L12.255 19.565V22.435L12.01 22.68ZM42.005 22.68H30.49L30.245 22.435V19.565L30.49 19.32H42.005L42.25 19.565V22.435L42.005 22.68ZM19.5875 11.4625V2.87L19.8325 2.625H22.72L22.965 2.87V11.445L22.72 11.69H19.8325L19.5875 11.4625ZM19.5875 39.13V30.555L19.8325 30.31H22.72L22.965 30.5375V39.13L22.72 39.375H19.8325L19.5875 39.13Z" fill="#A86338"/>
</g>
<defs>
<clipPath id="clip0_26_114">
<rect width="42" height="42" fill="white" transform="translate(0.25)"/>
</clipPath>
</defs>
</svg>
